X: 2
T: The Skye Boat Song
R: waltz
M: 3/4
L: 1/8
K: Gmaj
"G" D3 E D2 | "G" G4 G2 | "D" A3 B A2 | "D" d6 | "G" B3 A B2 |[1 "C" E4 E2 | "D" D6 | "D" D6 :|[2 "C" E4 F2 | "G" G6 | "G" G6 ||"Em" B3 G B2 | B6 | "Am" A3 E A2 | A6 | "Em" G3 E F2 | "C" G4 F2 | "Am" E6 | "Em" E6 | "Em" B3 G B2 | B6 | "Am" A3 E A2 | A6 | "Em" G3 E F2 | "C" G4 F2 | "Em" E6 | "D" D6 | "G" D3 E D2 | "G" G4 G2 | "D" A3 B A2 | "D" d6 | "G" B3 A B2 | "C" E4 E2 | "D" D6 | "D" D6 | "G" D3 E D2 | "G" G4 G2 | "D" A3 B A2 | "D" d6 | "G" B3 A B2 | "C" E4 F2 | "G" G6 | "G" G6 |]


Tune 3690	Setting 16684

